icons/microphoneB.svg

<svg width="24" height="24" viewBox="0 0 24 24" fill="none" xmlns="http://www.w3.org/2000/svg">
<path fill-rule="evenodd" clip-rule="evenodd" d="M11.21 8.94558C11.533 9.20489 11.5846 9.67695 11.3253 9.99995L5.63697 17.0854C5.62175 17.1088 5.60282 17.1588 5.61131 17.2394C5.61563 17.2805 5.62649 17.319 5.64057 17.3505C5.65494 17.3826 5.66821 17.3975 5.67076 17.4001L6.52398 18.2533C6.64504 18.3282 6.79577 18.3416 6.94578 18.2855L13.9709 12.6456C14.2939 12.3863 14.766 12.4379 15.0253 12.7609C15.2846 13.0839 15.233 13.556 14.91 13.8153L7.74749 19.5654L7.67584 19.6012C7.05895 19.9097 6.24916 19.9245 5.59043 19.4304L5.54779 19.3984L4.6101 18.4608C4.32113 18.1718 4.15976 17.7784 4.11955 17.3964C4.07869 17.0083 4.15602 16.5596 4.44043 16.1804L4.44784 16.1705L10.1556 9.0609C10.4149 8.7379 10.887 8.68626 11.21 8.94558Z" fill="black"/>
<path d="M17.9405 12.0304C16.3405 13.6304 13.6405 13.6304 12.0405 12.0304C10.4405 10.4304 10.3405 7.73042 12.0405 6.13042C13.6405 4.53042 16.3405 4.53042 17.9405 6.13042C19.5405 7.73042 19.5405 10.3304 17.9405 12.0304Z" fill="black"/>
<path fill-rule="evenodd" clip-rule="evenodd" d="M17.41 6.66075C16.1029 5.35364 13.8778 5.35364 12.5707 6.66075L12.5627 6.66878L12.5544 6.67657C11.1901 7.96057 11.2423 10.1717 12.5707 11.5001C13.8751 12.8045 16.0939 12.8072 17.402 11.508C18.7309 10.0877 18.706 7.95676 17.41 6.66075ZM11.5181 5.59206C13.4119 3.7072 16.5805 3.70988 18.4707 5.60009C20.3721 7.50153 20.3498 10.5647 18.4865 12.5444L18.4787 12.5527L18.4707 12.5608C16.5778 14.4536 13.4029 14.4536 11.51 12.5608C9.64091 10.6916 9.49099 7.5089 11.5181 5.59206Z" fill="black"/>
</svg>

<svg xmlns="http://www.w3.org/2000/svg" fill="none" viewBox="0 0 24 24">
  <path fill="#000" fill-rule="evenodd" d="M11.21 8.946A.75.75 0 0 1 11.325 10l-5.688 7.085a.239.239 0 0 0-.026.154.36.36 0 0 0 .03.111.18.18 0 0 0 .03.05l.853.853a.474.474 0 0 0 .422.032l7.025-5.64a.75.75 0 0 1 .939 1.17l-7.163 5.75-.071.036c-.617.309-1.427.323-2.086-.17l-.042-.033-.938-.937a1.778 1.778 0 0 1-.49-1.065 1.72 1.72 0 0 1 .32-1.216l.008-.01 5.708-7.11a.75.75 0 0 1 1.054-.114Z" clip-rule="evenodd"/>
  <path fill="#000" d="M17.94 12.03c-1.6 1.6-4.3 1.6-5.9 0-1.6-1.6-1.7-4.3 0-5.9 1.6-1.6 4.3-1.6 5.9 0 1.6 1.6 1.6 4.2 0 5.9Z"/>
  <path fill="#000" fill-rule="evenodd" d="M17.41 6.66c-1.307-1.306-3.532-1.306-4.84 0l-.007.009-.009.008c-1.364 1.284-1.312 3.495.017 4.823 1.304 1.305 3.523 1.307 4.831.008 1.329-1.42 1.304-3.551.008-4.847Zm-5.892-1.068c1.894-1.885 5.063-1.882 6.953.008 1.901 1.902 1.879 4.965.015 6.944l-.007.009-.008.008c-1.893 1.893-5.068 1.893-6.961 0-1.87-1.87-2.019-5.052.008-6.969Z" clip-rule="evenodd"/>
</svg>
